X: 1121
T: Scotch Tune.
%R: march, reel
B: Henry Playford "Apollo's Banquet", London 1687 (5th Edition)
F: https://archive.org/details/apollosbanquetco01rugg
Z: 2017 John Chambers <jc:trillian.mit.edu>
M: C|
L: 1/8
K: G
% - - - - - - - - - -
|:\
G2G2 G2g2 | e4 d4 | (ef)g2 d2(BG) | (AB)(AG) F2(ED) |\
EFG2 G2b2 | a2g2 a2d2 | (fg)g2 a2f2 | g4 B3A :|
|:\
(Bc)d2 d2d2 | (ab)(ag) a2d2 | efg2 d2B2 | A4 c3d |\
(ef)g2 d3B | (AB)(AG) E2(GA) | (Bc)d2 D2B2 | G4 g4 |]
% - - - - - - - - - -

%%sep 1 1 500
%%sep 1 1 500

